icon-svg/ceiling-square.svg

<?xml version="1.0" encoding="UTF-8"?>
<svg width="32px" height="32px" viewBox="0 0 32 32" version="1.1" fill="#44739e" xmlns="http://www.w3.org/2000/svg" xmlns:xlink="http://www.w3.org/1999/xlink">
            <path d="M23.802,18.22975 L16.632,20.88375 C16.223,21.03675 15.778,21.03675 15.368,20.88375 L8.198,18.22975 C7.932,18.13075 7.935,17.72075 8.202,17.62675 L15.397,15.11075 C15.789,14.97175 16.211,14.97175 16.604,15.11075 L23.798,17.62675 C24.066,17.72075 24.069,18.13075 23.802,18.22975 M27.471,13.25875 L16.631,9.11775 C16.222,8.96075 15.779,8.96075 15.369,9.11775 L4.53,13.25875 C4.214,13.37875 4,13.73375 4,14.13475 L4,17.84775 C4,18.24975 4.214,18.60375 4.53,18.72375 L15.369,22.88275 C15.779,23.03975 16.222,23.03975 16.631,22.88275 L27.471,18.72375 C27.786,18.60375 28,18.24975 28,17.84775 L28,14.13475 C28,13.73375 27.786,13.37875 27.471,13.25875"></path>
</svg>

<svg xmlns="http://www.w3.org/2000/svg" fill="#44739e" viewBox="0 0 24 24"><path d="m23.802 18.2298-7.17 2.654c-.409.153-.854.153-1.264 0l-7.17-2.654c-.266-.099-.263-.509.004-.603l7.195-2.516a1.8 1.8 0 0 1 1.207 0l7.194 2.516c.268.094.271.504.004.603m3.669-4.971-10.84-4.141a1.75 1.75 0 0 0-1.262 0L4.53 13.2588c-.316.12-.53.475-.53.876v3.713c0 .402.214.756.53.876l10.839 4.159c.41.157.853.157 1.262 0l10.84-4.159c.315-.12.529-.474.529-.876v-3.713c0-.401-.214-.756-.529-.876"/></svg>
